X: 25007
T: Maid On The Green, The
R: jig
M: 6/8
K: Gmajor
gfg e2d|Bee dBA|BGG dGG|BAG ABd|
~g3 e2d|Bee dBA|BGG dBA|BGF G2d:|
|:~g3 afd|~g3 a2a|gfg eag|fdc dga|
bgb afa|~g3 e2d|Bee dBA|BGF GBd:|

